public/images/SVG/MTL.svg

<svg xmlns="http://www.w3.org/2000/svg" width="225" height="152.446" viewBox="0 0 225 152.446"><path d="M199.418 74.58L217.03 55.71l-8.387-39.003L170.9 5.382l-3.775 3.774S136.23 0 109.11 0C52.633 0 0 30.265 0 76.05c0 43.546 41.688 76.396 109.11 76.396 62.07 0 115.89-39.7 115.89-39.7L199.418 74.58zM77.376 94.24S55.83 86.375 55.83 76.467c0-12.424 21.546-18.033 21.546-18.033V94.24zm39.073 4.016c-4.334.643-10.066.37-10.066.37v-9.368h10.065v8.998zm0-35.418h-10.066v-9.366c8.98-.02 8.82.18 10.065.364v9.002zm28.238 29.567V59.902c22.018 6.5 34.18 18.034 34.18 18.034s-16.776 9.856-34.18 14.47z" fill="#21386F"/><path d="M192.498 78.565c-18.705 12.518-36.52 20.32-55.988 23.984V50.234c36.877 6.954 51.165 25.185 51.165 25.185l20.97-21.81-7.13-31.033-28.52-7.968-3.773 3.773S142.592 7.69 106.367 7.69C48.65 7.69 7.995 41.03 7.995 76.26c0 38.372 40.235 68.288 97.446 68.288 60.847 0 108.866-33.69 108.866-33.69l-21.808-32.293zm-85.922-30.982c5.51 0 10.695.24 15.57.677v20.87h-21.6V47.68c1.943-.063 3.946-.1 6.03-.1zm-58.66 28.78c0-7.505 5.058-22.78 37.43-27.415v54.423c-38.033-6.118-37.43-27.007-37.43-27.007zm52.63 28.503V82.864h21.6v21.617c-4.43.372-8.963.56-13.63.56-2.784 0-5.435-.063-7.97-.174z" fill="#fff"/><path d="M170.48 25.093l4.193-4.613 22.646 6.71 5.032 25.163-15.518 15.518s-25.163-26-81.465-26c-44.35 0-63.014 18.924-63.014 33.55 0 14.625 16.775 35.227 65.075 35.227 49.628 0 83.6-24.324 83.6-24.324l15.097 22.648s-41.1 30.056-102.33 30.056c-48.44 0-90.028-24.184-90.028-63.397 0-35.648 42.427-62.227 92.438-62.227 42.045 0 64.272 11.69 64.272 11.69z" fill="#BE2F37"/></svg>

<?xml version="1.0" encoding="iso-8859-1"?>
<!-- Generator: Adobe Illustrator 13.0.0, SVG Export Plug-In . SVG Version: 6.00 Build 14948)  -->
<!DOCTYPE svg PUBLIC "-//W3C//DTD SVG 1.1//EN" "http://www.w3.org/Graphics/SVG/1.1/DTD/svg11.dtd">
<svg version="1.1" id="H_Stroke_White" xmlns="http://www.w3.org/2000/svg" xmlns:xlink="http://www.w3.org/1999/xlink" x="0px"
	 y="0px" width="225px" height="152.446px" viewBox="0 0 225 152.446" style="enable-background:new 0 0 225 152.446;"
	 xml:space="preserve">
<g>
	<path style="fill:#21386F;" d="M199.418,74.581l17.613-18.873l-8.388-39.003L170.899,5.382l-3.774,3.774
		c0,0-30.895-9.157-58.015-9.157C52.633,0,0,30.266,0,76.049c0,43.547,41.688,76.397,109.11,76.397
		c62.069,0,115.89-39.701,115.89-39.701L199.418,74.581z M77.376,94.239c0,0-21.546-7.863-21.546-17.771
		c0-12.424,21.546-18.033,21.546-18.033V94.239z M116.449,98.256c-4.333,0.643-10.065,0.369-10.065,0.369v-9.367h10.065V98.256z
		 M116.449,62.838h-10.065v-9.366c8.981-0.021,8.819,0.18,10.065,0.364V62.838z M144.688,92.405V59.902
		c22.018,6.5,34.18,18.034,34.18,18.034S162.092,87.792,144.688,92.405z"/>
	<g>
		<path style="fill:#FFFFFF;" d="M192.498,78.565c-18.705,12.518-36.521,20.32-55.988,23.984V50.235
			c36.877,6.954,51.165,25.185,51.165,25.185l20.969-21.809l-7.129-31.034l-28.519-7.968l-3.774,3.774
			c0,0-26.631-10.694-62.855-10.694c-57.718,0-98.372,33.341-98.372,68.57c0,38.373,40.235,68.289,97.446,68.289
			c60.846,0,108.865-33.689,108.865-33.689L192.498,78.565z M106.576,47.583c5.51,0,10.695,0.241,15.57,0.677v20.869h-21.599V47.682
			C102.489,47.619,104.492,47.583,106.576,47.583z M47.915,76.363c0-7.505,5.059-22.779,37.43-27.415v54.423
			C47.313,97.252,47.915,76.363,47.915,76.363z M100.547,104.866V82.864h21.599v21.617c-4.43,0.371-8.963,0.559-13.631,0.559
			C105.732,105.04,103.081,104.977,100.547,104.866z"/>
	</g>
	<path style="fill:#BE2F37;" d="M170.48,25.093l4.193-4.613l22.646,6.71l5.033,25.163l-15.518,15.518
		c0,0-25.163-26.002-81.465-26.002c-44.35,0-63.013,18.925-63.013,33.551c0,14.625,16.775,35.227,65.075,35.227
		c49.627,0,83.598-24.324,83.598-24.324l15.098,22.648c0,0-41.1,30.055-102.33,30.055c-48.439,0-90.028-24.184-90.028-63.397
		c0-35.647,42.428-62.226,92.439-62.226C148.253,13.403,170.48,25.093,170.48,25.093z"/>
</g>
</svg>
